X: 28861
T: Mympwy Llwyd
R: reel
M: 4/4
K: Emajor
GEGB FDFB|GEGB F2F2|GEGB FDFB|G2FG E2E2:|
|:B2A2 G2F2|B2AB GBF2|B2AB GFGA|B2FG E2E2:|

